tools/download-figma-icons/icons/outlined-large/phone.svg

<svg width="64" height="64" viewBox="0 0 64 64" fill="none" xmlns="http://www.w3.org/2000/svg">
<path fill-rule="evenodd" clip-rule="evenodd" d="M44.331 58.5326C37.682 58.5326 28.955 55.0846 19.24 45.3696C3.826 29.9566 3.581 16.2156 9.851 9.94559C15.475 4.32259 18.602 6.14859 19.425 6.84359C20.701 7.91859 23.61 11.6646 25.753 15.9036C28.154 20.6526 26.338 22.0676 23.042 24.6356L22.16 25.3266C21.073 26.1836 20.912 26.8776 20.886 27.3246C20.75 29.6316 24.24 33.4496 27.67 36.8806C31.101 40.3106 34.924 43.8106 37.226 43.6646C37.673 43.6376 38.367 43.4776 39.225 42.3906L39.917 41.5066C42.485 38.2116 43.897 36.3976 48.647 38.7976C52.885 40.9386 56.631 43.8476 57.706 45.1246C58.204 45.7156 59.22 47.3936 57.928 50.2306C57.584 50.9846 56.695 51.3176 55.941 50.9736C55.187 50.6306 54.854 49.7406 55.198 48.9866C55.674 47.9406 55.611 47.2936 55.412 47.0576C54.633 46.1336 51.254 43.4766 47.294 41.4746C44.748 40.1876 44.747 40.1896 42.284 43.3496L41.58 44.2506C40.391 45.7566 38.985 46.5666 37.401 46.6596C34.092 46.8606 30.42 43.8716 25.549 39.0016C20.678 34.1306 17.698 30.4476 17.891 27.1486C17.984 25.5656 18.795 24.1596 20.301 22.9706L21.199 22.2686C24.363 19.8036 24.363 19.8036 23.075 17.2576C21.073 13.2956 18.417 9.91659 17.493 9.13759C17.127 8.83159 15.331 8.70859 11.972 12.0666C9.424 14.6146 8.458 18.7856 9.323 23.5106C10.11 27.8096 12.827 34.7156 21.302 43.1896C35.028 56.9156 46.087 57.3056 51.408 53.4886C52.081 53.0086 53.019 53.1596 53.501 53.8326C53.984 54.5056 53.831 55.4426 53.157 55.9266C50.948 57.5116 47.946 58.5326 44.331 58.5326Z" fill="black"/>
</svg>

<svg xmlns="http://www.w3.org/2000/svg" width="64" height="64" fill="none" viewBox="0 0 64 64"><path fill="currentColor" fill-rule="evenodd" d="M44.331 58.533c-6.649 0-15.376-3.448-25.091-13.163C3.826 29.957 3.581 16.216 9.851 9.946c5.624-5.623 8.751-3.797 9.574-3.102 1.276 1.075 4.185 4.82 6.328 9.06 2.401 4.749.585 6.164-2.711 8.732l-.882.69c-1.087.858-1.248 1.552-1.274 1.999-.136 2.307 3.354 6.125 6.784 9.556 3.431 3.43 7.254 6.93 9.556 6.784.447-.027 1.141-.187 1.999-1.274l.692-.884c2.568-3.295 3.98-5.11 8.73-2.71 4.238 2.142 7.984 5.05 9.059 6.328.498.59 1.514 2.269.222 5.106a1.5 1.5 0 1 1-2.73-1.244c.476-1.046.413-1.693.214-1.93-.779-.923-4.158-3.58-8.118-5.582-2.546-1.287-2.547-1.285-5.01 1.875l-.704.9c-1.189 1.507-2.595 2.317-4.179 2.41-3.309.2-6.981-2.788-11.852-7.658s-7.851-8.554-7.658-11.853c.093-1.583.904-2.99 2.41-4.178l.898-.702c3.164-2.465 3.164-2.465 1.876-5.011-2.002-3.962-4.658-7.341-5.582-8.12-.366-.306-2.162-.43-5.521 2.929-2.548 2.548-3.514 6.719-2.649 11.444.787 4.299 3.504 11.205 11.979 19.679 13.726 13.726 24.785 14.116 30.106 10.299a1.5 1.5 0 0 1 1.749 2.438c-2.209 1.585-5.211 2.606-8.826 2.606" clip-rule="evenodd"/></svg>
